tools/download-figma-icons/icons/outlined-large/connector-ccs.svg

<svg width="64" height="64" viewBox="0 0 64 64" fill="none" xmlns="http://www.w3.org/2000/svg">
<path fill-rule="evenodd" clip-rule="evenodd" d="M10 52C10 56.963 14.037 61 19 61H45C49.963 61 54 56.963 54 52C54 47.037 49.963 43 45 43H19C14.037 43 10 47.037 10 52ZM10 18.038C10 21.592 10.825 24.982 12.451 28.116C16.258 35.446 23.748 40 32 40C40.252 40 47.742 35.446 51.549 28.116C53.175 24.982 54 21.592 54 18.038C54 15.715 53.636 13.42 52.919 11.219C52.279 9.263 51.358 7.399 50.183 5.683C49.269 4.348 47.748 3 46.411 3H17.597C16.128 3 14.563 4.562 13.669 5.9C12.565 7.556 11.694 9.346 11.081 11.221C10.364 13.42 10 15.715 10 18.038ZM43.884 40H45C51.617 40 57 45.383 57 52C57 58.617 51.617 64 45 64H19C12.383 64 7 58.617 7 52C7 45.383 12.383 40 19 40H20.116C15.784 37.663 12.156 34.059 9.789 29.499C7.964 25.984 7 22.021 7 18.038C7 15.398 7.413 12.791 8.229 10.289C8.928 8.154 9.918 6.118 11.174 4.235C11.838 3.241 14.263 0 17.597 0H46.411C49.674 0 52.018 3.052 52.658 3.987C53.995 5.94 55.042 8.06 55.771 10.288C56.587 12.791 57 15.398 57 18.038C57 22.021 56.036 25.984 54.211 29.499C51.844 34.059 48.216 37.663 43.884 40ZM27.9943 9.5C27.9943 8.121 26.8703 7 25.4893 7C24.1083 7 22.9843 8.121 22.9843 9.5C22.9843 10.879 24.1083 12 25.4893 12C26.8703 12 27.9943 10.879 27.9943 9.5ZM28.9943 9.5C28.9943 11.43 27.4223 13 25.4893 13C23.5563 13 21.9843 11.43 21.9843 9.5C21.9843 7.57 23.5563 6 25.4893 6C27.4223 6 28.9943 7.57 28.9943 9.5ZM18.9785 22C17.3205 22 15.9715 20.654 15.9715 19C15.9715 17.346 17.3205 16 18.9785 16C20.6365 16 21.9855 17.346 21.9855 19C21.9855 20.654 20.6365 22 18.9785 22ZM23.9855 19C23.9855 16.243 21.7395 14 18.9785 14C16.2175 14 13.9715 16.243 13.9715 19C13.9715 21.757 16.2175 24 18.9785 24C21.7395 24 23.9855 21.757 23.9855 19ZM28.993 19C28.993 20.654 30.342 22 32 22C33.658 22 35.007 20.654 35.007 19C35.007 17.346 33.658 16 32 16C30.342 16 28.993 17.346 28.993 19ZM32 14C34.761 14 37.007 16.243 37.007 19C37.007 21.757 34.761 24 32 24C29.239 24 26.993 21.757 26.993 19C26.993 16.243 29.239 14 32 14ZM42.0145 19C42.0145 20.654 43.3635 22 45.0215 22C46.6795 22 48.0285 20.654 48.0285 19C48.0285 17.346 46.6795 16 45.0215 16C43.3635 16 42.0145 17.346 42.0145 19ZM45.0215 14C47.7825 14 50.0285 16.243 50.0285 19C50.0285 21.757 47.7825 24 45.0215 24C42.2605 24 40.0145 21.757 40.0145 19C40.0145 16.243 42.2605 14 45.0215 14ZM36.0047 30C36.0047 31.654 37.3537 33 39.0117 33C40.6687 33 42.0177 31.654 42.0177 30C42.0177 28.346 40.6687 27 39.0117 27C37.3537 27 36.0047 28.346 36.0047 30ZM34.0047 30C34.0047 27.243 36.2507 25 39.0117 25C41.7717 25 44.0177 27.243 44.0177 30C44.0177 32.757 41.7717 35 39.0117 35C36.2507 35 34.0047 32.757 34.0047 30ZM24.9883 33C23.3313 33 21.9823 31.654 21.9823 30C21.9823 28.346 23.3313 27 24.9883 27C26.6463 27 27.9953 28.346 27.9953 30C27.9953 31.654 26.6463 33 24.9883 33ZM24.9883 25C22.2283 25 19.9823 27.243 19.9823 30C19.9823 32.757 22.2283 35 24.9883 35C27.7493 35 29.9953 32.757 29.9953 30C29.9953 27.243 27.7493 25 24.9883 25ZM38.5107 7C39.8917 7 41.0157 8.121 41.0157 9.5C41.0157 10.879 39.8917 12 38.5107 12C37.1297 12 36.0057 10.879 36.0057 9.5C36.0057 8.121 37.1297 7 38.5107 7ZM38.5107 13C40.4437 13 42.0157 11.43 42.0157 9.5C42.0157 7.57 40.4437 6 38.5107 6C36.5777 6 35.0057 7.57 35.0057 9.5C35.0057 11.43 36.5777 13 38.5107 13ZM21 56C18.794 56 17 54.206 17 52C17 49.794 18.794 48 21 48C23.206 48 25 49.794 25 52C25 54.206 23.206 56 21 56ZM21 45C17.141 45 14 48.141 14 52C14 55.859 17.141 59 21 59C24.859 59 28 55.859 28 52C28 48.141 24.859 45 21 45ZM39 52C39 54.206 40.794 56 43 56C45.206 56 47 54.206 47 52C47 49.794 45.206 48 43 48C40.794 48 39 49.794 39 52ZM36 52C36 48.141 39.141 45 43 45C46.859 45 50 48.141 50 52C50 55.859 46.859 59 43 59C39.141 59 36 55.859 36 52Z" fill="black"/>
</svg>

<svg width="64" height="64" viewBox="0 0 64 64" fill="none" xmlns="http://www.w3.org/2000/svg"><path fill-rule="evenodd" clip-rule="evenodd" d="M10 52c0 4.963 4.037 9 9 9h26c4.963 0 9-4.037 9-9s-4.037-9-9-9H19c-4.963 0-9 4.037-9 9Zm0-33.962c0 3.554.825 6.944 2.451 10.078C16.258 35.446 23.748 40 32 40c8.252 0 15.742-4.554 19.549-11.884A21.669 21.669 0 0 0 54 18.038c0-2.323-.364-4.618-1.081-6.819a21.802 21.802 0 0 0-2.736-5.536C49.269 4.348 47.748 3 46.411 3H17.597c-1.469 0-3.034 1.562-3.928 2.9a21.82 21.82 0 0 0-2.588 5.321A21.962 21.962 0 0 0 10 18.038ZM43.884 40H45c6.617 0 12 5.383 12 12s-5.383 12-12 12H19c-6.617 0-12-5.383-12-12s5.383-12 12-12h1.116A24.982 24.982 0 0 1 9.789 29.499a24.971 24.971 0 0 1-1.56-19.21 24.836 24.836 0 0 1 2.945-6.054C11.838 3.241 14.263 0 17.597 0h28.814c3.263 0 5.607 3.052 6.247 3.987a24.813 24.813 0 0 1 3.113 6.301 24.971 24.971 0 0 1-1.56 19.211A24.982 24.982 0 0 1 43.884 40ZM27.994 9.5a2.505 2.505 0 0 0-5.01 0 2.505 2.505 0 0 0 5.01 0Zm1 0a3.506 3.506 0 0 1-7.01 0 3.506 3.506 0 0 1 7.01 0ZM18.98 22a3.007 3.007 0 0 1-3.007-3 3.007 3.007 0 0 1 6.013 0c0 1.654-1.348 3-3.006 3Zm5.006-3c0-2.757-2.245-5-5.006-5a5.01 5.01 0 0 0-5.007 5c0 2.757 2.246 5 5.007 5a5.01 5.01 0 0 0 5.006-5Zm5.008 0a3.007 3.007 0 0 0 6.014 0 3.007 3.007 0 0 0-6.014 0ZM32 14a5.01 5.01 0 0 1 5.007 5c0 2.757-2.246 5-5.007 5a5.01 5.01 0 0 1-5.007-5c0-2.757 2.246-5 5.007-5Zm10.014 5a3.007 3.007 0 0 0 6.014 0 3.007 3.007 0 0 0-6.014 0Zm3.008-5a5.01 5.01 0 0 1 5.007 5c0 2.757-2.247 5-5.008 5a5.01 5.01 0 0 1-5.007-5c0-2.757 2.246-5 5.008-5Zm-9.017 16a3.007 3.007 0 0 0 6.013 0 3.007 3.007 0 0 0-6.013 0Zm-2 0c0-2.757 2.246-5 5.007-5a5.009 5.009 0 0 1 5.006 5c0 2.757-2.246 5-5.006 5a5.01 5.01 0 0 1-5.007-5Zm-9.017 3a3.007 3.007 0 0 1-3.006-3 3.007 3.007 0 0 1 6.013 0c0 1.654-1.349 3-3.007 3Zm0-8a5.009 5.009 0 0 0-5.006 5c0 2.757 2.246 5 5.006 5a5.01 5.01 0 0 0 5.007-5c0-2.757-2.246-5-5.007-5ZM38.511 7a2.505 2.505 0 0 1 2.505 2.5 2.505 2.505 0 0 1-5.01 0c0-1.379 1.124-2.5 2.505-2.5Zm0 6a3.506 3.506 0 0 0 3.505-3.5 3.506 3.506 0 0 0-7.01 0c0 1.93 1.572 3.5 3.505 3.5ZM21 56c-2.206 0-4-1.794-4-4s1.794-4 4-4 4 1.794 4 4-1.794 4-4 4Zm0-11c-3.859 0-7 3.141-7 7s3.141 7 7 7 7-3.141 7-7-3.141-7-7-7Zm18 7c0 2.206 1.794 4 4 4s4-1.794 4-4-1.794-4-4-4-4 1.794-4 4Zm-3 0c0-3.859 3.141-7 7-7s7 3.141 7 7-3.141 7-7 7-7-3.141-7-7Z" fill="currentColor"/></svg>
